!!!COM:	Bach, Johann Sebastian
!!!CDT:	1685/02/21/-1750/07/28/
!!!OTL@@DE:	Als Jesus Christus in der Nacht
!!!SCT:	BWV 265
!!!PC#:	180
!!!AGN:	chorale
**kern	**kern	**kern	**kern
*ICvox	*ICvox	*ICvox	*ICvox
*Ibass	*Itenor	*Ialto	*Isoprn
*I"Bass	*I"Tenor	*I"Alto	*I"Soprano
*clefF4	*clefGv2	*clefG2	*clefG2
*k[]	*k[]	*k[]	*k[]
*d:dor	*d:dor	*d:dor	*d:dor
*M4/4	*M4/4	*M4/4	*M4/4
*met(c)	*met(c)	*met(c)	*met(c)
*MM100	*MM100	*MM100	*MM100
4D	4d	4f	4a
=1	=1	=1	=1
4E	4c	[4g	4cc
4F	4c	8gL]	4a
.	.	[8fJ	.
4G	4B-	8fL]	4b-
.	.	8eJ	.
4A	4c	[4f	4a
=2	=2	=2	=2
4B-	4d	4.f]	4g
4c	8.cL	.	4g
.	.	8e	.
.	16B-Jk	.	.
4F;	4A;	4c;	4f;
8FL	4c	[4a	4a
8EJ	.	.	.
=3	=3	=3	=3
4D	4f	8aL]	4b
.	.	8g#J	.
4C	4e	[4a	4cc
4BB	4d	8aL]	4dd
.	.	8g#J	.
4AA	4e	4a	4cc
=4	=4	=4	=4
4D	4f	4a	2b
4E	8eL	4g#	.
.	8dJ	.	.
4AA;	4c#;	4e;	4a;
4AA	4A	4c#	4e
=5	=5	=5	=5
8DD	4A	4d	4f
4D	.	.	.
.	4A	4d	4f
8CnX	.	.	.
8BB	4G	8dL	4gnX
4E	.	8B	.
.	4B-	8c#	4g
8D	.	8dJ	.
=6	=6	=6	=6
8C#L	4A	8eL	4a
8BB	.	8d	.
8C#	4A	8e	4a
8AAJ	.	8c#J	.
4D;	4A;	4d;	4f;
4D	4F	8AL	4d
.	.	8BnXJ	.
=7	=7	=7	=7
8CnXL	4G	4cnX	4e
8BB-J	.	.	.
4AA	8AL	4c	4f
.	8FJ	.	.
4EE	8B-XL	4c#	4g
.	8GJ	.	.
8FFL	[4A	4d	4f
8GGJ	.	.	.
=8	=8	=8	=8
2AA	8AL]	4d	2e
.	8E	.	.
.	8A	4c#	.
.	8GJ	.	.
4D;	4F#;	4A;	4d;
==	==	==	==
*-	*-	*-	*-
!!!hum2abc: -Q ''
!!!title: @{PC#}. @{OTL@@DE}
!!!YOR1: 371 vierstimmige Choralges&auml;nge von Johann Sebastian Bach, 
!!!YOR2: 4th ed. by Alfred D&ouml;rffel (Leipzig: Breitkopf und H&auml;rtel, 
!!!YOR2: c.1875). 178 pp. Plate "V.A.10".  reprint: J.S. Bach, 371 Four-Part 
!!!YOR4: Chorales (New York: Associated Music Publishers, Inc., c.1940).
!!!SMS: B&H, 4th ed, Alfred D&ouml;rffel, c.1875, plate V.A.10
!!!EED:  Craig Stuart Sapp
!!!EEV:  2009/05/22
